X: 25770
T: Mary's Roughty Refuge
R: polka
M: 2/4
K: Eminor
F|:E>F GA|Bd de|c>B AG|F/G/A/F/ DF/D/|
E>F GA|Bd de/f/|ge dB|1 A2 B/A/G/F/:|2 A2 Ad||
|:g2ge|dB Bd|ce df|eg fa|
gf/g/ ag/e/|dB gB|ce dF|1 G2 Gd:|2 G2 G2||

